packages/foundations/assets/icons/functional/images/audio & video/fast_forward_10_14.svg

<svg width="14" height="14" viewBox="0 0 14 14" fill="none" xmlns="http://www.w3.org/2000/svg">
<g clip-path="url(#clip0_184_288)">
<path fill-rule="evenodd" clip-rule="evenodd" d="M2.83251 10.833C3.28251 10.833 3.55651 10.45 3.55651 10.163C3.55651 9.835 3.03651 9.043 3.03651 8.154C3.03651 6.269 4.47251 4.848 6.22151 4.684L5.74251 5.134C5.63351 5.271 5.53751 5.449 5.53751 5.626C5.53751 5.982 5.86551 6.296 6.23451 6.296C6.42074 6.29828 6.60064 6.2284 6.73651 6.101L8.26051 4.564C8.38502 4.42964 8.45243 4.25214 8.44851 4.069C8.44898 3.98488 8.43238 3.90155 8.39973 3.82403C8.36707 3.74651 8.31903 3.67642 8.25851 3.618L6.71151 2.06C6.64999 1.99536 6.576 1.94386 6.49401 1.90863C6.41202 1.87339 6.32374 1.85515 6.23451 1.855C6.04989 1.85579 5.87307 1.92948 5.74253 2.06002C5.61198 2.19056 5.5383 2.36739 5.53751 2.552C5.53751 2.73 5.60651 2.894 5.74251 3.03L6.05751 3.344C4.85927 3.45445 3.74581 4.00957 2.93643 4.90001C2.12706 5.79045 1.68043 6.95168 1.68451 8.155C1.68451 9.125 2.05351 10.833 2.83251 10.833ZM5.82451 12.145H7.17751C7.57451 12.145 7.84751 11.817 7.84751 11.461C7.84751 11.092 7.54751 10.778 7.16451 10.778V8.086C7.16584 7.96435 7.13363 7.84469 7.07141 7.74016C7.00918 7.63562 6.91936 7.55025 6.8118 7.49342C6.70423 7.43659 6.58309 7.4105 6.46167 7.41801C6.34025 7.42552 6.22324 7.46634 6.12351 7.536L5.41751 8.007C5.32468 8.06734 5.24837 8.14987 5.19547 8.24713C5.14256 8.34438 5.11474 8.45329 5.11451 8.564C5.11451 8.961 5.44251 9.261 5.82451 9.248V10.778C5.44251 10.778 5.15451 11.092 5.15451 11.475C5.15451 11.83 5.44251 12.145 5.82451 12.145ZM10.4305 7.348C11.5505 7.348 12.3155 8.141 12.3155 9.357V10.122C12.3155 11.352 11.5235 12.145 10.3615 12.145C9.30951 12.145 8.54451 11.338 8.54451 10.15V9.302C8.54451 8.141 9.33651 7.348 10.4305 7.348ZM10.4735 8.712H10.4165C10.1165 8.719 9.91051 8.797 9.91051 9.289V10.149C9.91051 10.628 10.0605 10.774 10.4305 10.767C10.7575 10.761 10.9355 10.6 10.9355 10.109V9.343C10.9355 8.769 10.6625 8.706 10.4155 8.712H10.4735Z" fill="#1A1C1F"/>
</g>
<defs>
<clipPath id="clip0_184_288">
<rect width="14" height="14" fill="white"/>
</clipPath>
</defs>
</svg>

<svg xmlns="http://www.w3.org/2000/svg" width="14" height="14" fill="none"><g clip-path="url(#a)"><path fill="#1A1C1F" fill-rule="evenodd" d="M2.833 10.833c.45 0 .724-.383.724-.67 0-.328-.52-1.12-.52-2.009 0-1.885 1.436-3.306 3.185-3.47l-.48.45c-.108.137-.204.315-.204.492 0 .356.328.67.697.67a.72.72 0 0 0 .502-.195L8.26 4.564a.71.71 0 0 0 .139-.74.6.6 0 0 0-.141-.206L6.712 2.06a.66.66 0 0 0-.477-.205.7.7 0 0 0-.697.697c0 .178.069.342.205.478l.315.314a4.815 4.815 0 0 0-4.373 4.811c0 .97.369 2.678 1.148 2.678m2.992 1.312h1.353c.397 0 .67-.328.67-.684 0-.369-.3-.683-.683-.683V8.086a.662.662 0 0 0-1.041-.55l-.706.471a.67.67 0 0 0-.303.557c0 .397.328.697.71.684v1.53c-.382 0-.67.314-.67.697 0 .355.288.67.67.67m4.606-4.797c1.12 0 1.885.793 1.885 2.009v.765c0 1.23-.793 2.023-1.955 2.023-1.051 0-1.816-.807-1.816-1.995v-.848c0-1.161.792-1.954 1.886-1.954m.043 1.364h-.058c-.3.007-.505.085-.505.577v.86c0 .479.15.625.52.618.327-.006.505-.167.505-.658v-.766c0-.574-.274-.637-.52-.631z" clip-rule="evenodd"/></g><defs><clipPath id="a"><path fill="#fff" d="M0 0h14v14H0z"/></clipPath></defs></svg>
